X:1
T:Pleasant Walk, The
M:6/8
L:1/8
S:Shaker tune
R:Laboring air
Z:SteveB.
K:Ador
e|:dcA AGE|A2A cde|dcA AGE|A2A A2e|
dcA AGE|A2A cde|ged cde|A2A A2e:|
|:a2a age|dcd A2B|c2d ede|c2d e2A|
a2a age|dcd A2B|c2d ede|A2A A2e:|

